build/img/Star-hero.svg

<svg width="474" height="476" viewBox="0 0 474 476" fill="none" xmlns="http://www.w3.org/2000/svg">
<path d="M237 0L251.161 148.211L310.237 11.6485L278.098 157L376.305 45.4539L301.012 173.718L428.737 98.1071L317.659 196.729L462.4 164.454L326.411 223.779L474 238L326.411 252.221L462.4 311.546L317.659 279.271L428.737 377.893L301.012 302.282L376.305 430.546L278.098 319L310.237 464.351L251.161 327.789L237 476L222.839 327.789L163.763 464.351L195.902 319L97.6949 430.546L172.988 302.282L45.263 377.893L156.341 279.271L11.5996 311.546L147.589 252.221L0 238L147.589 223.779L11.5996 164.454L156.341 196.729L45.263 98.1071L172.988 173.718L97.6949 45.4539L195.902 157L163.763 11.6485L222.839 148.211L237 0Z" fill="#231E29"/>
</svg>

<svg width="474" height="476" fill="none" xmlns="http://www.w3.org/2000/svg"><path d="M237 0l14.161 148.211 59.076-136.563L278.098 157l98.207-111.546-75.293 128.264 127.725-75.61-111.078 98.621L462.4 164.454l-135.989 59.325L474 238l-147.589 14.221L462.4 311.546l-144.741-32.275 111.078 98.622-127.725-75.611 75.293 128.264L278.098 319l32.139 145.351-59.076-136.562L237 476l-14.161-148.211-59.076 136.562L195.902 319 97.695 430.546l75.293-128.264-127.725 75.611 111.078-98.622L11.6 311.546l135.989-59.325L0 238l147.589-14.221-135.99-59.325 144.742 32.275L45.263 98.107l127.725 75.611L97.695 45.454 195.902 157 163.763 11.649l59.076 136.562L237 0z" fill="#231E29"/></svg>
